X: 214
T: Wish I Had My Time Again
B: canberra pickers and fiddlers
B: old time tunes update
B: tunes
M:C|
L:1/16
Q: 1/4=100
K:A
V:1 
af | "A"e2c2e2c2 | e3f e2ag | "D"f2d2f2d2 | f3a f2fg |
"A"abaf e2c2 | e3f a2AB | cecB A2F2 | "E7"B3c B2AB | BcBA F2E2 |
"A"A6 Ac | cecB A2F2 | "E7"B3c B2AB | BcBA F2E2 | "A"A3 BA2
W: Once I was a free man
W: Never messed with Satan
W: Wish I had my time again
W: Wish I had my time
W: 
W: Never did the crime
W: But now I'm doin' the time
W: Wish I had my time again
W: Wish I had my time
W: 
W: She thought that it was me
W: I think she did believe
W: Wish I had my time again
W: Wish I had my time
W: 
W: She would give her life
W: To set it back to right
W: Wish I had my time again
W: Wish I had my time
W: 
W: Once I was a free man
W: Never messed with Satan
W: Wish I had my time again
W: Wish I had my time
W: 
W: 
% abcbook-tune_id 67a7d9eca155081fd675fdb9
% abcbook-tune_composer_id 
% abcbook-link-0 https://www.youtube.com/watch?v=1TfcBG86NPg
% abcbook-link-title-0 
% abcbook-boost 0
% abcbook-difficulty 0
% abcbook-tags old time tunes
% abcbook-tablature 
% abcbook-transpose -2
% abcbook-tuning GDGD
% abcbook-lastupdated 1739251734956
% abcbook-src-url 
% abcbook-soundfonts 
% abcbook-repeats 1
%%MIDI transpose -2


